X:1
T:Colonel Hamilton of Pencaitland's Strathspey
T:Colonel Hamilton of Pencaitland's Strathspey
T:Nathaniel Gow (1763-1831)
C:Nathaniel Gow (1763-1831)
L:1/8
M:4/4
K:C
V:1 treble 
V:1
 TE/>D/ | Cc (d/c/).B/.A/ (A/G/).F/.E/{E} c2 | Cc TcB/A/ Bdd>e | (f>e)dc{c} B2 AG | %4
 (A/B/c/B/) (d/c/)B/A/ Gcc :| e/d/ | c>g (e/f/g/a/) gc (a/g/f/e/) | fa/g/ (f/e/).d/.c/ TBd de/d/ | %8
 Tc>dTe>f gefa | ge (f/e/).d/.c/ Gc ce/d/ | cg (e/f/g/a/) gc (a/g/f/e/) | %11
 Tfa/g/ (f/e/)d/c/ Bd dg/f/ |{f} Te>d{d}Tc>A G.E.F.G | (A/B/).c/.B/ (d/c/).B/.A/ G[Ec][Ec] || %14

